Suru++-Ubuntu/apps/symbolic/TeamViewer-symbolic.svg

<svg xmlns="http://www.w3.org/2000/svg" width="16" height="16" version="1.1">
 <g transform="translate(0.04145226,0.29015376)">
  <path d="m 7.958548,0.20984644 c -4.142173,0 -7.50000026,3.35792036 -7.50000026,7.49999996 0,4.1422286 3.35782726,7.4999996 7.50000026,7.4999996 4.141792,0 7.5,-3.357733 7.5,-7.4999996 0,-4.1420796 -3.358208,-7.49999996 -7.5,-7.49999996 z M 6.4585477,4.2088698 V 6.2098464 H 9.458548 V 4.2088698 L 13.457572,7.7098464 9.458548,11.210822 V 9.2098464 H 6.4585477 V 11.210822 L 2.4595243,7.7098464 Z" style="fill:#808080"/>
 </g>
</svg>

<svg width="16" height="16" version="1.1" xmlns="http://www.w3.org/2000/svg">
 <g transform="translate(.04145226 .29015376)">
  <path d="m7.958548 0.20984644c-4.142173 0-7.5000003 3.3579204-7.5000003 7.5 0 4.1422286 3.3578273 7.4999996 7.5000003 7.4999996 4.141792 0 7.5-3.357733 7.5-7.4999996 0-4.1420796-3.358208-7.5-7.5-7.5zm-1.5000003 3.9990234v2.0009766h3.0000003v-2.0009766l3.999024 3.5009766-3.999024 3.5009756v-2.0009756h-3.0000003v2.0009756l-3.9990234-3.5009756z" style="fill:#808080"/>
 </g>
</svg>
